X:92
T:92 The Duke of York's New Short Step by William Ebrington
C:Aylmore MS
I:abc2nwc
M:3/8
L:1/16
K:G
(3def|g2d2d2|d3 edc|B2G2G2|G3 BAG|F2A2A2|G2B2d2|d2c2B2|A3def|
g2d2d2|d3edc|B2G2G2|G4d2|e2gege|d2BdBd|c2A2F2|G4:|
G2|F2A2A2|G2B2B2|A2c2c2|B3dBG|F2AFAF|G2BGBG|A2cAcA|B4 (3def|
g2d2d2|d3edc|B2G2G2|G4d2|edefge|fgafge|c2A2F2|G4:|
z2|B2d2d2|d2e2e2|A2c2c2|^c2d2e2|G4FG|G4Bd|gdgdBG|D6|
B2d2d2|^d2e2e2|A2c2c2|^c2d2d2|gfgfe^d|edcBAG|cedBcA|G4|]

